packages/components/src/components/icon/common/ic-withdraw-request-verification-sent.svg

<svg width="128" height="128" viewBox="0 0 128 128" fill="none" xmlns="http://www.w3.org/2000/svg">
<path d="M13.0908 62.0093V105.327L41.0471 83.9891L13.0908 62.0093Z" fill="#85ACB0"/>
<path d="M101.63 62.0093V105.327L73.6738 83.9891L101.63 62.0093Z" fill="#85ACB0"/>
<path d="M17.5178 114.909H97.203C99.6379 114.909 101.63 112.917 101.63 110.482V109.84L57.4047 75.0444L13.0908 109.84V110.482C13.0908 112.917 15.083 114.909 17.5178 114.909Z" fill="#85ACB0"/>
<g style="mix-blend-mode:multiply" opacity="0.6">
<path d="M97.203 52.9326H17.5178C15.083 52.9326 13.0908 54.9247 13.0908 57.3596V58.0015L57.4047 92.7974L101.63 58.0015V57.3596C101.63 54.9247 99.6379 52.9326 97.203 52.9326Z" fill="#85ACB0"/>
</g>
<g style="mix-blend-mode:multiply">
<path d="M90.5631 61.7874C104.01 61.7874 114.911 50.8863 114.911 37.4391C114.911 23.9919 104.01 13.0908 90.5631 13.0908C77.1159 13.0908 66.2148 23.9919 66.2148 37.4391C66.2148 50.8863 77.1159 61.7874 90.5631 61.7874Z" fill="#FF444F"/>
</g>
<path d="M88.7925 48.0639V34.296H83.458V31.0422C84.2106 31.0643 84.9189 30.9979 85.6272 30.8873C86.3355 30.7766 86.9553 30.511 87.5087 30.1789C88.062 29.8469 88.5269 29.4042 88.9253 28.8509C89.3016 28.2975 89.5672 27.6334 89.6779 26.8145H93.1088V48.0417H88.7925V48.0639Z" fill="white"/>
</svg>

<svg width="128" height="128" viewBox="0 0 128 128" fill="none" xmlns="http://www.w3.org/2000/svg"><path d="M13.09 62.01v43.317l27.957-21.338-27.956-21.98Zm88.54 0v43.317L73.674 83.989l27.956-21.98Zm-84.112 52.899h79.685a4.44 4.44 0 0 0 4.427-4.427v-.642L57.405 75.044 13.09 109.84v.642a4.44 4.44 0 0 0 4.427 4.427Z" fill="#85ACB0"/><path d="M97.203 52.933H17.518a4.44 4.44 0 0 0-4.427 4.427v.642l44.314 34.795 44.225-34.795v-.642a4.44 4.44 0 0 0-4.427-4.427Z" fill="#85ACB0" style="mix-blend-mode:multiply" opacity=".6"/><path d="M90.563 61.787c13.447 0 24.348-10.9 24.348-24.348 0-13.447-10.901-24.348-24.348-24.348s-24.348 10.9-24.348 24.348c0 13.447 10.9 24.348 24.348 24.348Z" fill="#FF444F" style="mix-blend-mode:multiply"/><path d="M88.793 48.064V34.296h-5.335v-3.254c.753.022 1.46-.044 2.17-.155.707-.11 1.327-.376 1.88-.708a4.75 4.75 0 0 0 1.417-1.328c.377-.553.642-1.218.753-2.037h3.43v21.228h-4.316v.022Z" fill="#fff"/></svg>
